svgs/sharp-solid/suitcase-rolling.svg

<svg xmlns="http://www.w3.org/2000/svg" viewBox="0 0 384 512"><!--! Font Awesome Pro 6.6.0 by @fontawesome - https://fontawesome.com License - https://fontawesome.com/license (Commercial License) Copyright 2024 Fonticons, Inc. --><path d="M120 0L96 0l0 24 0 104L0 128 0 480l64 0 0 32 64 0 0-32 128 0 0 32 64 0 0-32 64 0 0-352-96 0 0-104 0-24L264 0 120 0zM240 128l-96 0 0-80 96 0 0 80zM112 224l160 0 16 0 0 32-16 0-160 0-16 0 0-32 16 0zm0 128l160 0 16 0 0 32-16 0-160 0-16 0 0-32 16 0z"/></svg>

<svg xmlns="http://www.w3.org/2000/svg" viewBox="0 0 384 512"><!--! Font Awesome Pro 6.4.0 by @fontawesome - https://fontawesome.com License - https://fontawesome.com/license (Commercial License) Copyright 2023 Fonticons, Inc. --><path d="M120 0H96V24 128H0V480H64v32h64V480H256v32h64V480h64V128H288V24 0H264 120zM240 128H144V48h96v80zM112 224H272h16v32H272 112 96V224h16zm0 128H272h16v32H272 112 96V352h16z"/></svg>
